public/_vara/icons/moonrepo.svg

<svg fill="currentColor" viewBox="0 0 24 24"><path d="M19.514 7.342c.197.52.3 1.071.302 1.627 0 3.525-3.818 5.728-6.87 3.965a4.58 4.58 0 0 1-2.289-3.965c0-3.323 3.428-5.538 6.458-4.176a10.6 10.6 0 0 0-6.46-2.181C4.772 2.614.005 7.381 0 13.265c.002 5.883 4.772 10.653 10.655 10.655 5.883-.004 10.651-4.773 10.655-10.655.002-2.11-.623-4.17-1.796-5.923m-4.673-2.676c0 3.525 3.816 5.729 6.868 3.966A4.58 4.58 0 0 0 24 4.666c0-3.526-3.816-5.727-6.87-3.967a4.59 4.59 0 0 0-2.289 3.967"/></svg>

<svg role="img" viewBox="0 0 24 24" xmlns="http://www.w3.org/2000/svg"><title>Moonrepo</title><path d="M 19.514 7.342 C 19.711 7.862 19.814 8.413 19.816 8.969 C 19.816 12.494 15.998 14.697 12.946 12.934 C 11.529 12.116 10.657 10.605 10.657 8.969 C 10.657 5.646 14.085 3.431 17.115 4.793 C 15.26 3.373 12.99 2.607 10.655 2.612 C 4.772 2.614 0.005 7.381 0 13.265 C 0.002 19.148 4.772 23.918 10.655 23.92 C 16.538 23.916 21.306 19.147 21.31 13.265 C 21.312 11.155 20.687 9.095 19.514 7.342 Z M 14.841 4.666 C 14.841 8.191 18.657 10.395 21.709 8.632 C 23.127 7.814 24 6.302 24 4.666 C 24 1.14 20.184 -1.061 17.13 0.699 C 15.714 1.519 14.841 3.03 14.841 4.666"/></svg>
